assets/images/depfin-study/icon-next-arrow.svg

<svg xmlns="http://www.w3.org/2000/svg" width="16.5" height="25.5"><path fill-rule="evenodd" stroke="#000" stroke-linecap="round" d="M12.981 12.198l-9.57 9.605-1.353-1.359 8.574-8.605-8.574-8.605 1.353-1.358 9.57 9.604-.357.359.357.359z"/></svg>

<svg
        xmlns="http://www.w3.org/2000/svg"
        xmlns:xlink="http://www.w3.org/1999/xlink"
        width="16.5px" height="25.5px">
    <path fill-rule="evenodd"  stroke="rgb(0, 0, 0)" stroke-width="1px" stroke-linecap="round" stroke-linejoin="miter" fill="#000"
          d="M12.981,12.198 L3.411,21.803 L2.058,20.444 L10.632,11.839 L2.058,3.234 L3.411,1.876 L12.981,11.480 L12.624,11.839 L12.981,12.198 Z"/>
</svg>
